Sources/FrostedUI/Resources/Icons.xcassets/split24.imageset/split-24.svg

<svg width="24" height="24" viewBox="0 0 24 24" fill="none" xmlns="http://www.w3.org/2000/svg" data-fui-icon="true">
  <path
    d="M18.2383 1.20239C18.541 0.919832 19.0152 0.935913 19.2979 1.23853L22.7979 4.98853C23.0666 5.27669 23.0667 5.72387 22.7979 6.01196L19.2979 9.76196C19.0152 10.0643 18.541 10.0804 18.2383 9.7981C17.9357 9.5155 17.9198 9.04128 18.2021 8.73853L20.5244 6.25024H16.542C15.7143 6.25024 14.953 6.70504 14.5605 7.43384L12.1016 12.0002L14.5605 16.5667C14.953 17.2953 15.7144 17.7502 16.542 17.7502H20.5244L18.2021 15.262C17.9196 14.9593 17.9358 14.4851 18.2383 14.2024C18.541 13.9198 19.0152 13.9359 19.2979 14.2385L22.7979 17.9885C23.0666 18.2767 23.0667 18.7239 22.7979 19.012L19.2979 22.762C19.0152 23.0643 18.541 23.0804 18.2383 22.7981C17.9357 22.5155 17.9198 22.0413 18.2021 21.7385L20.5244 19.2502H16.542C15.1627 19.2502 13.8944 18.4928 13.2402 17.2786L10.8027 12.7502H7.92871C7.57745 14.6006 5.95261 16.0002 4 16.0002C1.79097 16.0002 0.000182185 14.2092 0 12.0002C0 9.79111 1.79086 8.00024 4 8.00024C5.95284 8.00024 7.57771 9.39954 7.92871 11.2502H10.8027L13.2402 6.72192C13.8943 5.50749 15.1626 4.75024 16.542 4.75024H20.5244L18.2021 2.26196C17.9196 1.95928 17.9358 1.48506 18.2383 1.20239ZM4 9.50024C2.61929 9.50024 1.5 10.6195 1.5 12.0002C1.50018 13.3808 2.6194 14.5002 4 14.5002C5.3806 14.5002 6.49982 13.3808 6.5 12.0002C6.5 10.6195 5.38071 9.50024 4 9.50024Z"
    fill="currentColor"
  />
</svg>

<svg xmlns="http://www.w3.org/2000/svg" width="24" height="24" fill="none" data-fui-icon="true" viewBox="0 0 24 24"><path fill="currentColor" d="M18.238 1.202a.75.75 0 0 1 1.06.037l3.5 3.75a.75.75 0 0 1 0 1.023l-3.5 3.75a.75.75 0 0 1-1.096-1.023l2.322-2.489h-3.982c-.828 0-1.589.455-1.982 1.184L12.103 12l2.458 4.567a2.25 2.25 0 0 0 1.982 1.183h3.982l-2.322-2.488a.75.75 0 0 1 1.096-1.024l3.5 3.75a.75.75 0 0 1 0 1.024l-3.5 3.75a.75.75 0 0 1-1.096-1.024l2.322-2.488h-3.982a3.75 3.75 0 0 1-3.302-1.971l-2.437-4.529H7.929a4 4 0 1 1 0-1.5h2.874l2.437-4.528a3.75 3.75 0 0 1 3.302-1.972h3.982l-2.322-2.488a.75.75 0 0 1 .036-1.06M4 9.5a2.5 2.5 0 1 0 0 5 2.5 2.5 0 0 0 0-5"/></svg>
